X: 204
T:March. JaW.203
M:C
Q:160
S:James Winder Ms, Lancashire, 1835-41
R:March
O:England
A:Wyresdale,Lancashire
H:1/8
Z:vmp.Chris Partington, Aug 2004
K:D
A2|e4e4|f>ef>ga2g2|f2(ed)a2(gf)|e4z2A2|!
d4e4|f>ef>ga2g2|f2d2e2c2|d2d>dd2:|!
|:fg|a2a2a2(d'c')|b2b2a3g|g2b2f2a2|e2e>ee2fg|!
a2a2a2(d'c')|b2b2a3g|f>ga>g f>g e>f|d2d>dd2:|]
